packages/kaspersky-hexa-ui-icons/src/iconsSVGs/28x20/FlagBb.svg

<svg width="28" height="20" viewBox="0 0 28 20" fill="none" xmlns="http://www.w3.org/2000/svg">
<g clip-path="url(#clip0_5138_405)">
<rect width="28" height="20" rx="2" fill="white"/>
<mask id="mask0_5138_405" style="mask-type:luminance" maskUnits="userSpaceOnUse" x="0" y="0" width="28" height="20">
<rect width="28" height="20" rx="2" fill="white"/>
</mask>
<g mask="url(#mask0_5138_405)">
<rect width="28" height="20" fill="url(#paint0_linear_5138_405)"/>
<rect x="13.3333" width="14.6667" height="20" fill="#08379D"/>
<path fill-rule="evenodd" clip-rule="evenodd" d="M0 20H9.33333V0H0V20Z" fill="#08379D"/>
<path fill-rule="evenodd" clip-rule="evenodd" d="M9.33334 20H18.6667V0H9.33334V20Z" fill="#FFCC50"/>
<path fill-rule="evenodd" clip-rule="evenodd" d="M13.7456 6.4135C13.8794 6.2168 14.1702 6.2195 14.3003 6.41865L14.9965 7.48436C15.1413 7.70607 14.9822 8 14.7174 8H14.7017C14.5044 8 14.3504 8.17027 14.37 8.3665L14.6366 11.0332C14.6537 11.2036 14.7971 11.3333 14.9683 11.3333H15.1963C15.2841 11.3333 15.3683 11.2987 15.4307 11.237L15.9011 10.7717C15.9644 10.7091 16 10.6237 16 10.5347V9.4714C16 9.383 15.9649 9.29821 15.9024 9.2357L15.7147 9.04804C15.5395 8.87282 15.6099 8.57447 15.845 8.49611L16.798 8.17843C17.0387 8.09822 17.2771 8.30549 17.2313 8.55495L16.7397 11.2277C16.7271 11.2964 16.6932 11.3594 16.6429 11.4077L15.4301 12.5736C15.368 12.6333 15.2852 12.6667 15.1991 12.6667H15C14.8159 12.6667 14.6667 12.8159 14.6667 13V13.6667C14.6667 13.8508 14.5174 14 14.3333 14H13.6667C13.4826 14 13.3333 13.8508 13.3333 13.6667V13C13.3333 12.8159 13.1841 12.6667 13 12.6667H12.8047C12.7163 12.6667 12.6315 12.6315 12.569 12.569L11.4047 11.4047C11.3582 11.3582 11.3264 11.2989 11.3135 11.2344L10.7793 8.56324C10.7291 8.31227 10.9688 8.1007 11.2116 8.18164L12.155 8.49611C12.3901 8.57447 12.4605 8.87282 12.2853 9.04804L12.0976 9.2357C12.0351 9.29821 12 9.383 12 9.4714V10.5347C12 10.6237 12.0356 10.7091 12.0989 10.7717L12.5693 11.237C12.6317 11.2987 12.7159 11.3333 12.8037 11.3333H13.0317C13.2029 11.3333 13.3463 11.2036 13.3633 11.0332L13.63 8.3665C13.6496 8.17027 13.4948 8 13.2976 8C13.03 8 12.8703 7.70051 13.0208 7.47921L13.7456 6.4135Z" fill="#262626"/>
</g>
</g>
<defs>
<linearGradient id="paint0_linear_5138_405" x1="0" y1="0" x2="0" y2="20" gradientUnits="userSpaceOnUse">
<stop stop-color="#1132C7"/>
<stop offset="1" stop-color="#0522A5"/>
</linearGradient>
<clipPath id="clip0_5138_405">
<rect width="28" height="20" fill="white"/>
</clipPath>
</defs>
</svg>

<svg xmlns="http://www.w3.org/2000/svg" width="28" height="20" fill="none" viewBox="0 0 28 20"><g clip-path="url(#a)"><rect width="28" height="20" fill="#fff" rx="2"/><mask id="b" width="28" height="20" x="0" y="0" maskUnits="userSpaceOnUse" style="mask-type:luminance"><rect width="28" height="20" fill="#fff" rx="2"/></mask><g mask="url(#b)"><path fill="url(#c)" d="M0 0h28v20H0z"/><path fill="#08379d" d="M13.3333 0H28v20H13.3333z"/><path fill="#08379d" fill-rule="evenodd" d="M0 20h9.3333V0H0z" clip-rule="evenodd"/><path fill="#ffcc50" fill-rule="evenodd" d="M9.3333 20h9.3334V0H9.3333z" clip-rule="evenodd"/><path fill="#262626" fill-rule="evenodd" d="M13.7456 6.4135c.1338-.1967.4246-.194.5547.0052l.6962 1.0657c.1448.2217-.0143.5156-.2791.5156h-.0157a.3333.3333 0 0 0-.3317.3665l.2666 2.6667a.3334.3334 0 0 0 .3317.3001h.228a.333.333 0 0 0 .2344-.0963l.4704-.4653a.333.333 0 0 0 .0989-.237V9.4714a.333.333 0 0 0-.0976-.2357l-.1877-.1877c-.1752-.1752-.1048-.4735.1303-.5519l.953-.3177c.2407-.0802.4791.127.4333.3765l-.4916 2.6728a.333.333 0 0 1-.0968.18l-1.2128 1.1659a.333.333 0 0 1-.231.0931H15a.3333.3333 0 0 0-.3333.3333v.6667a.3334.3334 0 0 1-.3334.3333h-.6666a.3334.3334 0 0 1-.3334-.3333V13A.3333.3333 0 0 0 13 12.6667h-.1953a.333.333 0 0 1-.2357-.0977l-1.1643-1.1643a.334.334 0 0 1-.0912-.1703l-.5342-2.6712c-.0502-.251.1895-.4625.4323-.3816l.9434.3145c.2351.0784.3055.3767.1303.552l-.1877.1876A.333.333 0 0 0 12 9.4714v1.0633c0 .089.0356.1744.0989.237l.4704.4653a.333.333 0 0 0 .2344.0963h.228a.333.333 0 0 0 .3316-.3001l.2667-2.6667A.334.334 0 0 0 13.2976 8c-.2676 0-.4273-.2995-.2768-.5208z" clip-rule="evenodd"/></g></g><defs><linearGradient id="c" x1="0" x2="0" y1="0" y2="20" gradientUnits="userSpaceOnUse"><stop stop-color="#1132c7"/><stop offset="1" stop-color="#0522a5"/></linearGradient><clipPath id="a"><path fill="#fff" d="M0 0h28v20H0z"/></clipPath></defs></svg>
